svgs/sharp-solid/truck-field-un.svg

<svg xmlns="http://www.w3.org/2000/svg" viewBox="0 0 640 512"><!--! Font Awesome Pro 6.6.0 by @fontawesome - https://fontawesome.com License - https://fontawesome.com/license (Commercial License) Copyright 2024 Fonticons, Inc. --><path d="M384 32L32 32l0 96L0 128 0 288l32 0 0 32L0 320l0 64 32 0 32 0c0 53 43 96 96 96s96-43 96-96l128 0c0 53 43 96 96 96s96-43 96-96l32 0 32 0 0-64-32 0 0-96-68.1 0L477.2 83l-8.4-19L448 64l-64 0 0-32zm0 96l43.2 0 42.7 96L384 224l0-96zM160 336a48 48 0 1 1 0 96 48 48 0 1 1 0-96zm320 96a48 48 0 1 1 0-96 48 48 0 1 1 0 96zM128 144l0 64c0 8.8 7.2 16 16 16s16-7.2 16-16l0-64 0-16 32 0 0 16 0 64c0 26.5-21.5 48-48 48s-48-21.5-48-48l0-64 0-16 32 0 0 16zm112-16l8 0 9.9 0 4.4 8.8L288 188.2l0-44.2 0-16 32 0 0 16 0 96 0 16-16 0-8 0-9.9 0-4.4-8.8L256 195.8l0 44.2 0 16-32 0 0-16 0-96 0-16 16 0z"/></svg>

<svg xmlns="http://www.w3.org/2000/svg" viewBox="0 0 640 512"><!--! Font Awesome Pro 6.4.2 by @fontawesome - https://fontawesome.com License - https://fontawesome.com/license (Commercial License) Copyright 2023 Fonticons, Inc. --><path d="M384 32H32v96H0V288H32v32H0v64H32 64c0 53 43 96 96 96s96-43 96-96H384c0 53 43 96 96 96s96-43 96-96h32 32V320H608V224H539.9L477.2 83l-8.4-19H448 384V32zm0 96h43.2l42.7 96H384V128zM160 336a48 48 0 1 1 0 96 48 48 0 1 1 0-96zm320 96a48 48 0 1 1 0-96 48 48 0 1 1 0 96zM128 144v64c0 8.8 7.2 16 16 16s16-7.2 16-16V144 128h32v16 64c0 26.5-21.5 48-48 48s-48-21.5-48-48V144 128h32v16zm112-16h8 9.9l4.4 8.8L288 188.2V144 128h32v16 96 16H304h-8-9.9l-4.4-8.8L256 195.8V240v16H224V240 144 128h16z"/></svg>
